flaticon/essential/dislike.svg

<svg xmlns="http://www.w3.org/2000/svg" width="32" height="32" viewBox="0 0 24 24">
    <path d="M 16.757812 0 L 16.757812 0.828125 L 5.171875 0.828125 C 4.03125 0.828125 3.101562 1.753906 3.101562 2.898438 C 3.101562 3.378906 3.269531 3.820312 3.546875 4.175781 C 2.589844 4.355469 1.863281 5.199219 1.863281 6.207031 C 1.863281 6.6875 2.027344 7.132812 2.304688 7.484375 C 1.347656 7.664062 0.621094 8.507812 0.621094 9.515625 C 0.621094 10.550781 1.191406 11.03125 1.742188 11.269531 C 1.308594 11.648438 1.035156 12.207031 1.035156 12.828125 C 1.035156 13.96875 1.960938 14.898438 3.101562 14.898438 L 9.046875 14.898438 L 8.746094 16.308594 C 8.34375 18.191406 8.609375 20.328125 8.699219 20.9375 C 8.914062 22.382812 10.191406 24 11.582031 24 L 11.679688 24 C 12.339844 24 13.449219 23.625 13.449219 21.101562 C 13.449219 17.785156 14.277344 16.265625 14.972656 15.574219 C 15.652344 14.898438 16.308594 14.90625 16.34375 14.898438 L 16.757812 14.898438 L 16.757812 15.722656 L 23.378906 15.722656 L 23.378906 0 Z M 16.359375 14.070312 C 16.320312 14.066406 15.355469 14.050781 14.421875 14.957031 C 13.226562 16.113281 12.621094 18.183594 12.621094 21.101562 C 12.621094 21.875 12.5 23.171875 11.679688 23.171875 L 11.582031 23.171875 C 10.65625 23.171875 9.675781 21.878906 9.515625 20.816406 C 9.429688 20.242188 9.183594 18.226562 9.554688 16.480469 L 10.070312 14.070312 L 3.101562 14.070312 C 2.417969 14.070312 1.863281 13.511719 1.863281 12.828125 C 1.863281 12.144531 2.417969 11.585938 3.101562 11.585938 L 7.242188 11.585938 C 7.46875 11.585938 7.65625 11.402344 7.65625 11.171875 C 7.65625 10.945312 7.46875 10.757812 7.242188 10.757812 L 4.34375 10.757812 C 3.980469 10.757812 3.175781 10.742188 2.75 10.679688 C 1.667969 10.519531 1.449219 10.097656 1.449219 9.515625 C 1.449219 8.832031 2.003906 8.277344 2.691406 8.277344 L 7.242188 8.277344 C 7.46875 8.277344 7.65625 8.089844 7.65625 7.863281 C 7.65625 7.632812 7.46875 7.449219 7.242188 7.449219 L 3.929688 7.449219 C 3.246094 7.449219 2.691406 6.890625 2.691406 6.207031 C 2.691406 5.523438 3.246094 4.964844 3.929688 4.964844 L 8.070312 4.964844 C 8.296875 4.964844 8.484375 4.78125 8.484375 4.550781 C 8.484375 4.324219 8.296875 4.136719 8.070312 4.136719 L 5.171875 4.136719 C 4.488281 4.136719 3.929688 3.582031 3.929688 2.898438 C 3.929688 2.210938 4.488281 1.65625 5.171875 1.65625 L 16.757812 1.65625 L 16.757812 14.070312 Z M 22.550781 14.898438 L 17.585938 14.898438 L 17.585938 0.828125 L 22.550781 0.828125 Z M 22.550781 14.898438"/>
    <path d="M 20.070312 6.207031 C 21.210938 6.207031 22.136719 5.277344 22.136719 4.136719 C 22.136719 2.996094 21.210938 2.070312 20.070312 2.070312 C 18.929688 2.070312 18 2.996094 18 4.136719 C 18 5.277344 18.929688 6.207031 20.070312 6.207031 Z M 20.070312 2.898438 C 20.753906 2.898438 21.308594 3.453125 21.308594 4.136719 C 21.308594 4.824219 20.753906 5.378906 20.070312 5.378906 C 19.382812 5.378906 18.828125 4.824219 18.828125 4.136719 C 18.828125 3.453125 19.382812 2.898438 20.070312 2.898438 Z M 20.070312 2.898438"/>
</svg>

<svg xmlns="http://www.w3.org/2000/svg" width="32" height="32" viewBox="0 0 24 24">
    <path d="M16.758 0v.828H5.172c-1.14 0-2.07.926-2.07 2.07 0 .48.168.922.445 1.278a2.07 2.07 0 0 0-1.242 3.308A2.07 2.07 0 0 0 .62 9.516c0 1.035.57 1.515 1.121 1.754a2.07 2.07 0 0 0 1.36 3.629h5.945l-.3 1.41c-.403 1.882-.138 4.02-.048 4.628C8.914 22.384 10.191 24 11.582 24h.098c.66 0 1.77-.375 1.77-2.898 0-3.317.827-4.836 1.523-5.528.68-.676 1.336-.668 1.37-.676h.415v.825h6.62V0zm-.399 14.07c-.039-.004-1.004-.02-1.937.887-1.195 1.156-1.8 3.227-1.8 6.145 0 .773-.122 2.07-.942 2.07h-.098c-.926 0-1.906-1.293-2.066-2.356-.086-.574-.332-2.59.039-4.336l.515-2.41H3.102a1.242 1.242 0 0 1 0-2.484h4.14a.414.414 0 0 0 0-.828H4.344c-.364 0-1.168-.016-1.594-.078-1.082-.16-1.3-.582-1.3-1.164A1.24 1.24 0 0 1 2.69 8.277h4.551a.414.414 0 0 0 0-.828H3.93a1.242 1.242 0 0 1 0-2.484h4.14a.414.414 0 0 0 0-.828H5.172A1.242 1.242 0 0 1 3.93 2.898c0-.687.558-1.242 1.242-1.242h11.586V14.07zm6.192.828h-4.965V.828h4.965zm0 0"/>
    <path d="M20.07 6.207A2.067 2.067 0 1 0 18 4.137c0 1.14.93 2.07 2.07 2.07zm0-3.309a1.24 1.24 0 1 1-1.242 1.238 1.24 1.24 0 0 1 1.242-1.238zm0 0"/>
</svg>
